images/direction-8.svg

<svg width="103" height="137" viewBox="0 0 103 137" fill="none" xmlns="http://www.w3.org/2000/svg">
<path d="M17.0002 64C18.1644 69.5833 20.6119 74.6831 24.0002 79" stroke="black" stroke-width="1.8" stroke-miterlimit="10"/>
<path d="M79.0002 79C82.3886 74.6831 84.8373 69.5833 86.0002 64" stroke="black" stroke-width="1.8" stroke-miterlimit="10"/>
<path d="M24.0002 79C30.4277 87.5176 40.3458 93 51.4994 93C62.6547 93 72.5728 87.5176 79.0002 79" stroke="black" stroke-width="1.8" stroke-miterlimit="10"/>
<path d="M79.0002 35C72.573 26.483 62.6552 21 51.5002 21C40.3469 21 30.4292 26.4813 24.0002 35" stroke="black" stroke-width="1.8" stroke-miterlimit="10"/>
<path d="M86.0002 50C84.8373 44.4146 82.3868 39.3177 79.0002 35" stroke="black" stroke-width="1.8" stroke-miterlimit="10"/>
<path d="M24.0002 35C20.6128 39.3159 18.1646 44.4146 17.0002 50" stroke="black" stroke-width="1.8" stroke-miterlimit="10"/>
<path d="M17.0002 50C16.3547 52.2589 16.0002 54.5982 16.0002 56.9984C16.0002 59.4002 16.3525 61.7411 17.0002 64" stroke="black" stroke-width="1.8" stroke-miterlimit="10"/>
<path d="M86.0002 64C86.6494 61.7411 87.0002 59.4002 87.0002 56.9984C87.0002 54.5982 86.6494 52.2589 86.0002 50" stroke="black" stroke-width="1.8" stroke-miterlimit="10"/>
<path d="M51.5002 68C71.1064 68 87.0002 62.8513 87.0002 56.5C87.0002 50.1487 71.1064 45 51.5002 45C31.8941 45 16.0002 50.1487 16.0002 56.5C16.0002 62.8513 31.8941 68 51.5002 68Z" stroke="black" stroke-width="1.8" stroke-miterlimit="10"/>
<path d="M52 21V57" stroke="black" stroke-width="1.8" stroke-miterlimit="10"/>
<path d="M18 110H85" stroke="black" stroke-width="1.8" stroke-miterlimit="10"/>
<path d="M27 122H76" stroke="black" stroke-width="1.8" stroke-miterlimit="10"/>
<path d="M94.4991 1H1V136H102V8.47563L94.4991 1Z" stroke="black" stroke-width="1.8" stroke-miterlimit="10"/>
</svg>

<svg width="103" height="137" fill="none" xmlns="http://www.w3.org/2000/svg"><path d="M17 64a36.278 36.278 0 007 15m55 0a36.26 36.26 0 007-15M24 79c6.428 8.518 16.346 14 27.5 14 11.155 0 21.073-5.482 27.5-14m0-44c-6.427-8.517-16.345-14-27.5-14-11.153 0-21.07 5.481-27.5 14m62 15c-1.163-5.585-3.613-10.682-7-15m-55 0a36.274 36.274 0 00-7 15m0 0a25.42 25.42 0 00-1 6.998c0 2.402.352 4.743 1 7.002m69 0c.65-2.259 1-4.6 1-7.002 0-2.4-.35-4.74-1-6.998" stroke="#000" stroke-width="1.8" stroke-miterlimit="10"/><path d="M51.5 68C71.106 68 87 62.851 87 56.5S71.106 45 51.5 45 16 50.149 16 56.5 31.894 68 51.5 68zm.5-47v36m-34 53h67m-58 12h49" stroke="#000" stroke-width="1.8" stroke-miterlimit="10"/><path d="M94.5 1H1v135h101V8.476L94.5 1z" stroke="#000" stroke-width="1.8" stroke-miterlimit="10"/></svg>
